X: 1
T: The Merry Lads of Ayr
P: The Merry Lads of Ayr
C: RSCDS BK 1, John Riddell 1757, arr. T. Traub 5-20-2001
L: 1/8
M: 4/4
R: Reel
K:C
|: f|"C"edcB cGGf|"C"edce "F"f2 gf|"C"edcB cGGc|"F"A/B/c GE "G"D2 :|
|: de|"C"c2 ga gede|"C"ccga "G"g2 ed|"C"cega "Am"gece|"F"fage "G"d2 :|
